X:1246
T:"Colonel Fraser"     (reel)     1246
C:after Mr. McFadden
B:O'Neill's Music Of Ireland (The 1850) Lyon & Healy, Chicago, 1903 edition
Z:FROM O'NEILL'S TO NOTEWORTHY, FROM NOTEWORTHY TO ABC, MIDI AND .TXT BY VINCE
BRENNAN July 2003 (HTTP://WWW.SOSYOURMOM.COM)
I:abc2nwc
M:C|
L:1/8
K:G
(dc)"^Segno"|BGAF D3/2(G/2 (3{A}GFG)|AFcF dFcF|BGAF DGGg|fdcA d2(cA)|
BGAF D3/2(G/2 (3{A}GFG)|AFcF dFcF|BGAF DGGg| (3(fed) cA (BG) G2||
dggf g2(bg)|fdcB AB{d}cA|Gg{a}gf gbag|fdcA (BG) G2|
(gfg).e d2dc| (3(Bcd) (BG) ABcA|GBAc  (3(Bcd) (eg)|fdcA (BG) G2||
B3/2d/2  (3(ddd) (BG)dG|AFcF  (3(ABc) (AF)|B3/2d/2  (3(ddd) (BG)dG|cAFG (AG) G2|
B3/2d/2  (3(ddd) (BG)dG|AFcF  (3ABc (AF)|(3(GAB)  (3(ABc)  (3(Bcd) (eg)|fdcA BG G2||
(3(BcB) GB  (3(BdB) GB|(3(ABA) FA  (3(AcA) FA|(3(BcB) GB  (3(BdB) GB|{d}cAFG (AG) G2|
(3(BcB) GB GBGB|(3(ABA) FA FAFA|GBAc  (3(Bcd) eg|fdcA d2c"^Dal Segno"A:|
